X: 225
T: 226. Herr Jesu Christ, du hast bereit't
N: Derived from chor226.krn
C: Johann Sebastian Bach
%%abc-version 2.0
%%abcx-abcm2ps-target-version 5.9.1 (29 Sep 2008)
%%abc-creator hum2abc beta
%%abcx-conversion-date 2019/03/11 17:28:19
%%abc-edited-by Craig Stuart Sapp
%%humdrum-veritas 3164091997
%%humdrum-veritas-data 3463521041
%%
%%barnumbers 0
L: 1/8
M: C
%%staves [1 2 3 4]
V: 1 clef=treble
V: 2 clef=treble
V: 3 clef=treble-8
V: 4 clef=bass
K: Bb
[V:1] G2 [I:setbarnb 1]| 
[V:2] D2 | 
[V:3] B2 | 
[V:4] G,F, | 
[V:1] GAB2AGF2 | 
[V:2] E2FGF2C2 | 
[V:3] Bcd2cBA2 | 
[V:4] E,2D,E,F,3E, | 
[V:1] B2A2!fermata!B2B2 | 
[V:2] F2F2!fermata!F2G2- | 
[V:3] Bd c/d/e- e!fermata!dd2 | 
[V:4] D,B,,F,2!fermata!B,,2G,,2 | 
[V:1] A2G2c2B2 | 
[V:2] G^FG2-GA- AG | 
[V:3] ed/c/ B=B ced2 | 
[V:4] C,D,E,D, E,C, G,,B,, | 
[V:1] A4!fermata!G2 :|]  
[V:2] G^F/=E/F2!fermata!D2 :|]  
[V:3] ec Ad/c/!fermata!_B2 :|]  
[V:4] C,A,,D,2!fermata!G,,2 :|]  
[V:1] d2 [I:setbarnb 5]| 
[V:2] A2- | 
[V:3] d2 | 
[V:4] ^F,2 | 
[V:1] B2c2d2c2 | 
[V:2] AG- G=FF2F3/_E/ | 
[V:3] d2c2-cB- BA | 
[V:4] G,2A,2B,2=F,2 | 
[V:1] B2B2!fermata!A2B2 | 
[V:2] D=E/^F/G2!fermata!F2G2 | 
[V:3] B3/c/d2!fermata!d2d2 | 
[V:4] G,3/A,/ B,G,!fermata!D,2G,2 | 
[V:1] B2A2B2A2 | 
[V:2] =F3_E DG2^F | 
[V:3] d2c2Bd ed- | 
[V:4] D,_E, F,^F, G,B,, C,D, | 
[V:1] G2G2!fermata!^F2B2 | 
[V:2] G^F GG,!fermata!D2G,G- | 
[V:3] d3c!fermata!A2d2 | 
[V:4] E,4!fermata!D,2G,,2 | 
[V:1] A2G2c2B2 | 
[V:2] G^F G=FE2D2 | 
[V:3] d3/c/ BA GA- AG- | 
[V:4] D,2E,2-E,^F,, G,,B,, | 
[V:1] A4!fermata!G2 |]  
[V:2] EC A,D/C/!fermata!=B,2 |]  
[V:3] G^F/=E/^F2!fermata!D2 |]  
[V:4] C,A,,D,2!fermata!G,,2 |]  



